svg/600/rounded/contacts-fill.svg

<svg xmlns="http://www.w3.org/2000/svg" width="48" height="48" viewBox="0 -960 960 960"><path d="M479.934-437.782q51.762 0 86.61-34.499 34.847-34.499 34.847-86.261 0-51.762-34.781-86.61T480.066-680q-51.762 0-86.61 34.781-34.847 34.782-34.847 86.544t34.781 86.327q34.781 34.566 86.544 34.566ZM138.218-146.999q-32.507 0-55.863-23.356t-23.356-55.863v-507.564q0-34.507 23.356-56.863t55.863-22.356h683.564q32.507 0 55.863 23.356t23.356 55.863v507.564q0 32.507-23.356 55.863t-55.863 23.356H138.218ZM213.782-220h532.436q-46.174-64.13-119.935-98.174Q552.522-352.218 480-352.218q-73.522 0-145.783 34.044Q261.956-284.13 213.782-220ZM160.999-27q-13 0-21.5-8.5t-8.5-21.5q0-13 8.5-21.5t21.5-8.5h638.002q13 0 21.5 8.5t8.5 21.5q0 13-8.5 21.5t-21.5 8.5H160.999Zm0-846.001q-13 0-21.5-8.5t-8.5-21.5q0-13 8.5-21.5t21.5-8.5h638.002q13 0 21.5 8.5t8.5 21.5q0 13-8.5 21.5t-21.5 8.5H160.999Z"/></svg>

<svg xmlns="http://www.w3.org/2000/svg" width="48" height="48" viewBox="0 -960 960 960"><path d="M479.93-437.78q51.77 0 86.61-34.5 34.85-34.5 34.85-86.26 0-51.76-34.78-86.61T480.07-680q-51.77 0-86.61 34.78-34.85 34.78-34.85 86.54 0 51.77 34.78 86.33 34.78 34.57 86.54 34.57ZM138.22-147q-32.51 0-55.86-23.36Q59-193.71 59-226.22v-507.56q0-34.51 23.36-56.86Q105.71-813 138.22-813h683.56q32.51 0 55.86 23.36Q901-766.29 901-733.78v507.56q0 32.51-23.36 55.86Q854.29-147 821.78-147H138.22Zm75.56-73h532.44q-46.18-64.13-119.94-98.17-73.76-34.05-146.28-34.05-73.52 0-145.78 34.05-72.26 34.04-120.44 98.17ZM161-27q-13 0-21.5-8.5T131-57q0-13 8.5-21.5T161-87h638q13 0 21.5 8.5T829-57q0 13-8.5 21.5T799-27H161Zm0-846q-13 0-21.5-8.5T131-903q0-13 8.5-21.5T161-933h638q13 0 21.5 8.5T829-903q0 13-8.5 21.5T799-873H161Z"/></svg>
